X:1
T:Jesus Christus, 88.78
T:Jesus Christus, 88.78
T:Geistliche Lieder (Wittenberg, German
T:Public Domain Courtesy of the Cyber Hymnal™
C:Geistliche Lieder (Wittenberg, German
Z:Public Domain
Z:Courtesy of the Cyber Hymnal™
%%score 1 ( 2 3 )
L:1/8
Q:1/4=115
M:4/4
K:F
V:1 treble 
V:2 bass 
V:3 bass 
V:1
 [CF]4 [Ec]4 | [CA]2 [DF]2 [EG]2 [CA]2 | [DB]4 [CA]4 | [CF]2 [Ec]2 [FA]2 [Fd]2 | %4
 [Fc]2 [DB]2 [Ec]4 | [CA]4 z4 | [Fc]2 [Gc]2 [FB]2 [FA]2 | [FA]2 [EG]2 [DF]4 | [Cc]4 [CA]2 [CF]2 | %9
 [Ec]2 [DB]2 [DA]2 [DG]2 | [^CA]8 |] %11
V:2
 [F,A,]4 [C,G,]4 | F,2 [D,A,]2 [C,C]2 F,2 | [B,,F,]4 [F,,F,]4 | [F,A,]2 [C,G,]2 [D,F,]2 [B,,B,]2 | %4
 [F,A,]2 G,2 [C,G,]4 | F,4 z4 | [F,A,]2 [E,C]2 [D,D]2 [F,C]2 | [A,,C]2 [C,C]2 [D,A,]4 | %8
 [E,G,]4 F,2 [A,,F,]2 | [C,G,]2 [G,,G,]2 [D,F,]2 [B,,D,]2 | [A,,E,]8 |] %11
V:3
 x8 | F,2 x2 F,2 x2 | x8 | x8 | x2 G,2 x4 | F,4 x4 | x8 | x8 | x4 F,2 x2 | x8 | x8 |] %11

